icon-themes/sifr_svg/cmd/sc_showallnotes.svg

<svg viewBox="0 0 16 16" xmlns="http://www.w3.org/2000/svg"><path d="m2 2c-.554 0-1 .446-1 1v8 4l2-2v2l3-3h8c.554 0 1-.446 1-1v-8c0-.554-.446-1-1-1zm1 2h10v6h-10z" fill="#555753"/></svg>

<svg xmlns="http://www.w3.org/2000/svg" viewBox="0 0 16 16">
  <path
     style="fill:#555753"
     d="M 2 2 C 1.446 2 1 2.446 1 3 L 1 11 L 1 15 L 3 13 L 3 15 L 6 12 L 14 12 C 14.554 12 15 11.554 15 11 L 15 3 C 15 2.446 14.554 2 14 2 L 2 2 z M 3 4 L 13 4 L 13 10 L 3 10 L 3 4 z "
     />
</svg>
